X: 11713
T: El Garrotín
R: polka
M: 2/4
K: Cmajor
E|:GG GF/G/|AG/F/ E2-|E3 C|AG/F/ DB,|1 C4-|C3 E:|
[2 C2-CD/E/||FF FF|F>E DD/E/|F/G/F/E/ F/G/F/E/|F/G/F/E/ DD/E/|
FF FF|F>E DD|A3 G|F2 DB,|:CF/E/ F/D/F/D/|ED B,D:|C4|
|:G>c G/G/c/G/|EG/c/ G/G/c/G/|EG/c/ G/F/E/F/|AG EE|F2 DB,|
CF/E/ F/D/F/D/|ED B,D|CF/D/ F/D/F/D/|ED B,D|C4:|

